X: 10269
T: Dodd's Farewell To Shetland
R: reel
M: 4/4
K: Dmajor
Bc|:d2 AF DFAF|GEED CEAG|FAdc defd|ea^gb a=gec|
d2 AF DFAF|GEED CEAG|FAde fgec|1 d2 dc defe:|2 d2 dc d2 d_e|
|:e2 Ac egfe|dAFA DFAF|GABG FAdc|Beed ceAc|
[1 e2 Ac egfe|dAFA DFAF|GABG egec|d2 dc d2 d_e:|
[2 dBed ceAc|BGdB AdFA|GABG egec|d2 dc d2||

